X:28
T:Con Cassidy's
Z: id:dc-jig-22
M:6/8
L:1/8
K:G Major
dc|BAB cBc|dgg d2g|fed cAF|Ggg d2c|!
BAB cBc|dgg d2g|fed cAF|G3 G:|!
Bd|gGG FGG|efg d2c|BA^G Aag|fed efg|!
a2f gfe|fed fga|gfe def|gGG G:|!